public/images/icon-mini-pencil.svg

<svg width="20" height="20" viewBox="0 0 20 20" xmlns="http://www.w3.org/2000/svg">
<path d="M13.586 3.586C13.7705 3.39498 13.9912 3.24262 14.2352 3.1378C14.4792 3.03298 14.7416 2.97781 15.0072 2.9755C15.2728 2.97319 15.5361 3.0238 15.7819 3.12436C16.0277 3.22492 16.251 3.37343 16.4388 3.56121C16.6266 3.749 16.7751 3.9723 16.8756 4.21809C16.9762 4.46389 17.0268 4.72725 17.0245 4.9928C17.0222 5.25836 16.967 5.5208 16.8622 5.76481C16.7574 6.00882 16.605 6.22951 16.414 6.414L15.621 7.207L12.793 4.379L13.586 3.586ZM11.379 5.793L3 14.172V17H5.828L14.208 8.621L11.378 5.793H11.379Z" fill="#6c757d"/>
</svg>

<svg xmlns="http://www.w3.org/2000/svg" width="20" height="20"><path fill="#6c757d" d="M13.586 3.586a2.0002 2.0002 0 0 1 2.8528-.0248 1.9995 1.9995 0 0 1-.0248 2.8528l-.793.793-2.828-2.828.793-.793Zm-2.207 2.207L3 14.172V17h2.828l8.38-8.379-2.83-2.828h.001Z"/></svg>
